X: 1269
T: An Droimeann Donn Dilis
R: waltz
M: 3/4
K: Gmajor
Bc|d2 g2 gf|ga3 af|g3f d3/2e/|d4 de|
f3/2e/ d3/2e/ fg|a4 fa|gf d3/2c/ Bc|
A3g fd|e2 A2 FG|A4 AB|c2 d3e|A4 ga|
ba g3b|ag f2 d2|cB c3/2A/ G3/2G/|G4||

